X: 16892
T: Haughs Of Cromdale, The
R: strathspey
M: 4/4
K: Adorian
f/|e<A A>f e>d B<f|e<A A<B G>A B>d|e<A A>f e>d B<f|d<B g>B A2 A>:|
f/|e>d e<g a>b a>g|e<g d<g B<g d<g|e>d e<g a>b a>g|e<g d<B A2 A>:|

